svg/Outline/arrow-redo-circle.svg

<svg viewBox="0 0 24 24" xmlns="http://www.w3.org/2000/svg" width="24" height="24"><path d="M12.3 6.97a.5.5 0 0 1 .53.08l3.8 3.37c.65.59.65 1.62-.01 2.2l-3.79 3.37a.49.49 0 0 1-.81-.37v-1.84c-1.1.04-1.87.23-2.46.54-.68.34-1.2.86-1.77 1.6a.5.5 0 0 1-.88-.3c0-1.5.25-3.08 1.1-4.3.8-1.16 2.09-1.92 4-2.04V7.42l.01-.07q.05-.26.29-.38"/><path fill-rule="evenodd" d="M12 1A11 11 0 1 1 12 23A11 11 0 0 1 12 1M12 2.8A9.2 9.2 0 1 0 12 21.2A9.2 9.2 0 0 0 12 2.8" clip-rule="evenodd"/></svg>

<svg viewBox="0 0 24 24" xmlns="http://www.w3.org/2000/svg" width="24" height="24"><path d="M12.3 6.97A.5 .5 0 0 1 12.83 7.05L16.63 10.42C17.28 11.01 17.28 12.04 16.62 12.62L12.83 15.99A.49 .49 0 0 1 12.02 15.62L12.02 13.78C10.92 13.82 10.15 14.01 9.56 14.32C8.88 14.66 8.36 15.18 7.79 15.92A.5 .5 0 0 1 6.91 15.62C6.91 14.12 7.16 12.54 8.01 11.32C8.81 10.16 10.1 9.4 12.01 9.28L12.02 7.35Q12.07 7.09 12.31 6.97"/><path fill-rule="evenodd" d="M12 1A11 11 0 1 1 12 23A11 11 0 0 1 12 1M12 2.8A9.2 9.2 0 1 0 12 21.2A9.2 9.2 0 0 0 12 2.8" clip-rule="evenodd"/></svg>
